X:1
T:Wind That Shakes the Barley
L:1/8
M:4/4
I:linebreak $
K:D
V:1 treble
V:1
 "D" A2 AB AFED |"G" B2 BA Bc d2 |"D"  A2 AB AFED |"A" gfed "G"BcdB |$
 "D" A2 AB AFED |"G" B2 BA BcdB |"D"  A2 AB AFED |"A"  gfed "G"Bcde ||"D" f2 fd "G"g2 ge |$
 "D" f2 fd "Em"edBA |"D"  f2 fd "G"g2 ge |"A" afed "G"Bcde |"D" f2 fd "G"g2 ge |"D"  f2 fd "Em"edBA |$
 "D"  defg afba |1 "A"gfed "G"BcdB |2"A" gfed "G"Bcde |]"D" d8 |]
